!!!Genre:	Freylekhs
!!!Mode:	Major
!!!Listening/dance:	dance
!!!:	*g:dor
!!!One_Mode:	no
**kern
*thru
*I"P1
*clefG2
*k[f#]
*G:
*M2/4
*>A
=1
8r
8dL
8g
8aJ
=2
8b
(8qdd/
8ccJ)
24bLL
24cc
24bJ
8aJ
=3
4.b
8a
=4
8bL
8aJ
4g
=5
8r
8dd
8ccL
8bJ
=6
8aL
8b
8cc
8ddJ
=7
4.b
8ee
=8
(8qee/
8ddL)
8cc#XJ
4dd
=9
8r
8dL
8g
8aJ
=10
8bL
8ccJ
16bLL
16cc
16b
16aJJ
=11
4.b
8a
=12
(16qqb/LL
16qqcc/JJ
8bL)
8aJ
4g
=13
8r
8b
(16qqa/LL
16qqb/JJ
8aL)
8gJ
*>A1
=14
(16qqf#/LL
16qqg/JJ
8f#L)
8d
8f#
8aJ
=15
2g
=16
4gg'
4dd'
*>A2
=17:|!
8f#L
8gJ
(8qb/
8aL)
8f#J
=18
((8qa/
2g)
*>bM
*g:dor
=19||
*k[b-]
8gL)
*>B
!LO:TX:a:i:t=G-dorian
8g
8b-
8ddJ
=20!|:
4.gg
8ff#X
=21
8.ggL
16ff#XJk
8.ggL
16ff#Jk
=22
8ggL
24ffnL
24gg
24ffJJ
8eeL
8ddJ
=23
8cc#XL
8ddJ
16b-LL
16aJ
8gJ
=24
8r
24ffLL
24gg
24ffJJ
8eeL
8ddJ
*>B1
=25
8cc#XL
8b-J
16b-LL
16aJ
8gJ
=26
[2dd
=27
8ddL]
8g
8b-
8ddJ
*>B2
=28:|!
8cc#XL
8dd
8ee
8cc#J
=29
2dd
*>eM
*G:
=30||
*>C
*k[f#]
!LO:TX:a:i:t=G-major
4dd
4b
=31
8dL
8g
8b
8gJ
=32
24aLL
24b
24aJ
8gJ
8bL
8gJ
=33
8ddL
24ccL
24dd
24ccJJ
8bL
8aJ
=34
24aLL
24b
24aJ
8gJ
8bL
8gJ
=35
8dL
8gJ
24bLL
24cc
24bJ
8gJ
=36
24aLL
24b
24aJ
8gJ
8bL
8gJ
=37
8ddL
24ccL
24dd
24ccJJ
8bL
8aJ
=38
4g
4dd
=39
(4.gg
8ff#)
=40
(4.gg
8ff#)
=41
(8.ggL
16ff#Jk)
(8.ggL
16ff#Jk)
=42
8ggL
8ffn
8ee
8ddJ
=43
8dL
8g
8b
8gJ
=44
8aL
8g
8b
8gJ
=45
8ddL
24ccL
24dd
24ccJJ
8bL
8aJ
=46
24aLL
24b
24aJ
8gJ
8b
8r
=47
8r
16dLL
16gJJ
8bL
8gJ
=48
8aL
8gJ
8bL
8gJ
=49
8bL
(8qdd/
8ccJ)
16bLL
16cc
16b
16aJJ
=50
2g
==
*-
